app/assets/icons/instagram.svg

<?xml version="1.0" encoding="UTF-8" standalone="no"?>
<svg width="512px" height="512px" viewBox="0 0 512 512" version="1.1" xmlns="http://www.w3.org/2000/svg" xmlns:xlink="http://www.w3.org/1999/xlink" xmlns:sketch="http://www.bohemiancoding.com/sketch/ns">
    <!-- Generator: Sketch 3.3.3 (12072) - http://www.bohemiancoding.com/sketch -->
    <title>instagram</title>
    <desc>Created with Sketch.</desc>
    <defs></defs>
    <g id="Page-1" stroke="none" stroke-width="1" fill="none" fill-rule="evenodd" sketch:type="MSPage">
        <g id="instagram" sketch:type="MSArtboardGroup" fill="#231F20">
            <g sketch:type="MSLayerGroup" transform="translate(26.000000, 26.000000)" id="Shape">
                <path d="M406.916,194.58 L366.896,194.58 C369.84,205.896 371.496,217.764 371.496,230 C371.496,308.2 308.108,371.496 230,371.496 C151.8,371.496 88.504,308.108 88.504,230 C88.504,217.764 90.252,205.896 93.196,194.58 L53.084,194.58 L53.084,389.252 C53.084,399.004 60.996,406.916 70.84,406.916 L389.252,406.916 C399.004,406.916 407.008,399.004 407.008,389.252 L407.008,194.58 L406.916,194.58 Z M406.916,70.748 C406.916,60.996 399.004,53.084 389.16,53.084 L336.076,53.084 C326.324,53.084 318.412,60.996 318.412,70.748 L318.412,123.832 C318.412,133.584 326.324,141.496 336.076,141.496 L389.16,141.496 C398.912,141.496 406.916,133.584 406.916,123.832 L406.916,70.748 L406.916,70.748 Z M230,141.496 C181.148,141.496 141.496,181.056 141.496,229.908 C141.496,278.76 181.056,318.412 230,318.412 C278.944,318.412 318.504,278.76 318.504,229.908 C318.504,181.148 278.852,141.496 230,141.496 L230,141.496 Z M406.916,460 L53.084,460 C23.736,460 0,436.264 0,406.916 L0,53.084 C0,23.736 23.736,0 53.084,0 L406.916,0 C436.264,0 460,23.736 460,53.084 L460,406.916 C460,436.264 436.264,460 406.916,460 L406.916,460 Z" sketch:type="MSShapeGroup"></path>
            </g>
        </g>
    </g>
</svg>

<?xml version="1.0" encoding="utf-8"?>
<!-- Generator: Adobe Illustrator 19.2.1, SVG Export Plug-In . SVG Version: 6.00 Build 0)  -->
<svg version="1.1" id="Calque_1" xmlns:sketch="http://www.bohemiancoding.com/sketch/ns"
	 xmlns="http://www.w3.org/2000/svg" xmlns:xlink="http://www.w3.org/1999/xlink" x="0px" y="0px" width="512px" height="512px"
	 viewBox="0 0 512 512" enable-background="new 0 0 512 512" xml:space="preserve">
<title>instagram</title>
<desc>Created with Sketch.</desc>
<g id="Page-1" sketch:type="MSPage">
	<g id="instagram" sketch:type="MSArtboardGroup">
		<g id="Shape" transform="translate(26.000000, 26.000000)" sketch:type="MSLayerGroup">
			<path sketch:type="MSShapeGroup" fill="#231F20" d="M406.9,194.6h-40c2.9,11.3,4.6,23.2,4.6,35.4c0,78.2-63.4,141.5-141.5,141.5
				c-78.2,0-141.5-63.4-141.5-141.5c0-12.2,1.7-24.1,4.7-35.4H53.1v194.7c0,9.8,7.9,17.7,17.8,17.7h318.4c9.8,0,17.8-7.9,17.8-17.7
				L406.9,194.6L406.9,194.6z M406.9,70.7c0-9.8-7.9-17.7-17.8-17.7h-53.1c-9.8,0-17.7,7.9-17.7,17.7v53.1c0,9.8,7.9,17.7,17.7,17.7
				h53.1c9.8,0,17.8-7.9,17.8-17.7V70.7L406.9,70.7z M230,141.5c-48.9,0-88.5,39.6-88.5,88.4s39.6,88.5,88.5,88.5
				s88.5-39.7,88.5-88.5C318.5,181.1,278.9,141.5,230,141.5L230,141.5z M406.9,460H53.1C23.7,460,0,436.3,0,406.9V53.1
				C0,23.7,23.7,0,53.1,0h353.8C436.3,0,460,23.7,460,53.1v353.8C460,436.3,436.3,460,406.9,460L406.9,460z"/>
		</g>
	</g>
</g>
</svg>
